packages/dnb-eufemia/assets/icons/hourglass_medium.svg

<svg width="24" height="24" viewBox="0 0 24 24" fill="none" xmlns="http://www.w3.org/2000/svg">
<path d="M22 22H19.2L16.7107 22M2 22H4.8L7.2893 22M12 12C8.36293 10.6485 6.30418 7.98425 5.71837 4.09457C5.68362 3.83463 5.6983 3.56911 5.7614 3.31633C5.82449 3.06355 5.93451 2.82952 6.08385 2.6304C6.2332 2.43128 6.41831 2.27181 6.62643 2.16297C6.83454 2.05414 7.0607 1.99855 7.2893 2.00003M12 12C15.6371 10.6485 17.6958 7.98425 18.2816 4.09457C18.3164 3.83463 18.3017 3.56911 18.2386 3.31633C18.1755 3.06355 18.0655 2.82952 17.9161 2.6304C17.7668 2.43128 17.5817 2.27181 17.3736 2.16297C17.1655 2.05414 16.9393 1.99855 16.7107 2.00003M12 12C8.36293 13.3527 6.30418 16.017 5.71837 19.9066C5.68378 20.1665 5.69859 20.4319 5.76177 20.6845C5.82494 20.9371 5.93499 21.171 6.08431 21.37C6.23364 21.569 6.41869 21.7283 6.62672 21.8371C6.83475 21.9459 7.0608 22.0014 7.2893 22M12 12C15.6371 13.3527 17.6958 16.017 18.2816 19.9066C18.3162 20.1665 18.3014 20.4319 18.2382 20.6845C18.1751 20.9371 18.065 21.171 17.9157 21.37C17.7664 21.569 17.5813 21.7283 17.3733 21.8371C17.1652 21.9459 16.9392 22.0014 16.7107 22M16.7107 2.00003H7.2893M16.7107 2.00003L19.2 2H22M7.2893 2.00003L4.8 2H2M7.2893 22H16.7107" stroke="black" stroke-width="1.5" stroke-linecap="round" stroke-linejoin="round"/>
</svg>

<svg width="24" height="24" viewBox="0 0 24 24" fill="none" xmlns="http://www.w3.org/2000/svg"><path d="M22 22h-5.29M2 22h5.29M12 12c-3.637-1.351-5.696-4.016-6.282-7.905-.034-.26-.02-.526.043-.779.063-.252.174-.486.323-.686.15-.199.334-.358.542-.467.209-.109.435-.164.663-.163M12 12c3.637-1.351 5.696-4.016 6.282-7.905.034-.26.02-.526-.043-.779a1.916 1.916 0 0 0-.323-.686 1.62 1.62 0 0 0-.542-.467A1.408 1.408 0 0 0 16.71 2M12 12c-3.637 1.353-5.696 4.017-6.282 7.907-.034.26-.02.525.044.777.063.253.173.487.322.686.15.199.335.358.543.467.208.109.434.164.662.163M12 12c3.637 1.353 5.696 4.017 6.282 7.907.034.26.02.525-.044.777a1.916 1.916 0 0 1-.322.686c-.15.199-.335.358-.543.467a1.408 1.408 0 0 1-.662.163m0-20H7.289m9.422 0H22M7.29 2H2m5.29 20h9.42" stroke="#000" stroke-width="1.5" stroke-linecap="round" stroke-linejoin="round"/></svg>
